packages/icons/svg/16/Pencil.svg

<svg width="16" height="16" viewBox="0 0 16 16" fill="none" xmlns="http://www.w3.org/2000/svg">
<path d="M9.97401 3.19292C10.3645 2.80239 10.9977 2.80239 11.3882 3.19292L12.8024 4.60713C13.193 4.99766 13.193 5.63082 12.8024 6.02134L11.7418 7.082L8.91335 4.25358L9.97401 3.19292Z" fill="#858585"/>
<path d="M8.20624 4.96068L3.61005 9.55688L3.05003 12.357C2.98005 12.7068 3.28851 13.0153 3.63838 12.9453L6.43847 12.3853L11.0347 7.78911L8.20624 4.96068Z" fill="#858585"/>
</svg>

<svg width="16" height="16" fill="none" xmlns="http://www.w3.org/2000/svg" viewBox="0 0 16 16"><path d="M9.974 3.193a1 1 0 011.414 0l1.414 1.414a1 1 0 010 1.414l-1.06 1.061-2.829-2.828 1.061-1.061zM8.206 4.96L3.61 9.558l-.56 2.8a.5.5 0 00.588.588l2.8-.56 4.597-4.596-2.829-2.828z" fill="currentColor"></path></svg>
